src/assets/icons/menu_icons/calendar.svg

<svg height="512pt" viewBox="0 0 512 512" width="512pt" xmlns="http://www.w3.org/2000/svg"><path d="m453.332031 512h-394.664062c-32.363281 0-58.667969-26.304688-58.667969-58.667969v-352c0-32.363281 26.304688-58.664062 58.667969-58.664062h394.664062c32.363281 0 58.667969 26.300781 58.667969 58.664062v352c0 32.363281-26.304688 58.667969-58.667969 58.667969zm-394.664062-437.332031c-14.699219 0-26.667969 11.964843-26.667969 26.664062v352c0 14.699219 11.96875 26.667969 26.667969 26.667969h394.664062c14.699219 0 26.667969-11.96875 26.667969-26.667969v-352c0-14.699219-11.96875-26.664062-26.667969-26.664062zm0 0"/><path d="m496 202.667969h-480c-8.832031 0-16-7.167969-16-16s7.167969-16 16-16h480c8.832031 0 16 7.167969 16 16s-7.167969 16-16 16zm0 0"/><path d="m122.667969 128c-8.832031 0-16-7.167969-16-16v-96c0-8.832031 7.167969-16 16-16s16 7.167969 16 16v96c0 8.832031-7.167969 16-16 16zm0 0"/><path d="m389.332031 128c-8.832031 0-16-7.167969-16-16v-96c0-8.832031 7.167969-16 16-16s16 7.167969 16 16v96c0 8.832031-7.167969 16-16 16zm0 0"/></svg>

<svg height="512pt" viewBox="0 0 512 512" width="512pt" xmlns="http://www.w3.org/2000/svg"><path d="M453.332 512H58.668C26.305 512 0 485.695 0 453.332v-352c0-32.363 26.305-58.664 58.668-58.664h394.664c32.363 0 58.668 26.3 58.668 58.664v352C512 485.695 485.695 512 453.332 512zM58.668 74.668C43.968 74.668 32 86.633 32 101.332v352C32 468.032 43.969 480 58.668 480h394.664c14.7 0 26.668-11.969 26.668-26.668v-352c0-14.7-11.969-26.664-26.668-26.664zm0 0"/><path d="M496 202.668H16c-8.832 0-16-7.168-16-16s7.168-16 16-16h480c8.832 0 16 7.168 16 16s-7.168 16-16 16zM122.668 128c-8.832 0-16-7.168-16-16V16c0-8.832 7.168-16 16-16s16 7.168 16 16v96c0 8.832-7.168 16-16 16zm266.664 0c-8.832 0-16-7.168-16-16V16c0-8.832 7.168-16 16-16s16 7.168 16 16v96c0 8.832-7.168 16-16 16zm0 0"/></svg>
